X:427
T:Frank Gilruth
C:Peter Milne
B:Flowers of Scottish Melody (1930)
Z:Nigel Gatherer
M:4/4
L:1/8
K:E
    e2 dc BEGB | cFAc BEGB | e2 dc BEGB | cedf eagf |
    e2 dc BEGB | cFAc BEGB | edec  BEGB | cedf gee ||
g | agfe  dece | Bede gffb | agfe  dece | Bedf geeg |
    agfe  dece | Bede gffa | gbge  fafd | egec dfdB |]
<end>
<start>
